src/dsmComponents/Icons/passenger-12px.svg

<?xml version="1.0" encoding="UTF-8"?>
<svg width="10px" height="12px" viewBox="0 0 10 12" version="1.1" xmlns="http://www.w3.org/2000/svg" xmlns:xlink="http://www.w3.org/1999/xlink">
    <!-- Generator: Sketch 59.1 (86144) - https://sketch.com -->
    <title>passenger-12px</title>
    <desc>Created with Sketch.</desc>
    <defs>
        <path d="M7.27000876,11.0074037 C7.53911762,11.0074037 7.7578418,11.2296149 7.7578418,11.5035031 C7.7578418,11.7777888 7.53911762,12 7.27000876,12 L7.27000876,12 L2.77444566,12 C2.50494622,12 2.28661262,11.7777888 2.28661262,11.5035031 C2.28661262,11.2296149 2.50494622,11.0074037 2.77444566,11.0074037 L2.77444566,11.0074037 Z M9.26719489,1.92814907 C9.38905551,1.82201242 9.57458048,1.83592547 9.67964621,1.96154037 C9.78510251,2.08675776 9.77026051,2.27478261 9.64683758,2.38171429 L9.64683758,2.38171429 L1.08730106,9.81406211 L9.45701623,9.81406211 C9.6187159,9.81406211 9.75,9.94762733 9.75,10.1121988 C9.75,10.2767702 9.6187159,10.4103354 9.45701623,10.4103354 L9.45701623,10.4103354 L0.292863583,10.4103354 C0.170221809,10.4103354 0.0604691394,10.3324224 0.0178960397,10.2151553 C-0.0242864812,10.0982857 0.00969388283,9.96631056 0.103042239,9.88521739 L0.103042239,9.88521739 L2.22779144,8.04034783 L2.09655693,5.61987578 C2.09655693,5.53202484 2.10749314,5.44576398 2.12545977,5.36149068 C2.13678655,5.30742857 2.15670608,5.25614907 2.17467271,5.20407453 C2.18365602,5.17942857 2.19029586,5.15359006 2.20084149,5.12934161 C2.22974433,5.06136646 2.26606817,4.99816149 2.3062978,4.93614907 C2.30942243,4.9317764 2.3117659,4.92740373 2.31489053,4.92303106 C2.38714763,4.81490683 2.47073151,4.71354037 2.57696897,4.63125466 C3.04761654,4.2663354 3.86392643,3.81634783 5.02589865,3.81634783 C5.6969132,3.81634783 6.25153523,3.96700621 6.69210823,4.16417391 L6.69210823,4.16417391 Z M7.68156174,4.85100124 C7.70343416,4.88041739 7.72725948,4.90824348 7.747179,4.93924969 L7.747179,4.93924969 L7.76905142,4.97383354 C7.80107889,5.02710062 7.8303723,5.08076522 7.85419762,5.13840497 C7.8674773,5.1698087 7.87724177,5.20240497 7.8877874,5.23500124 C7.90184824,5.27833043 7.9174714,5.3208646 7.92684529,5.36578385 C7.94442134,5.44806957 7.95496697,5.53234286 7.95496697,5.61820621 C7.95496697,5.61860373 7.95535755,5.61939876 7.95535755,5.61979627 L7.75303768,9.21572174 L2.69425981,9.21572174 Z M5.02597677,-1.42108547e-14 C5.92469881,-1.42108547e-14 6.65312845,0.711950311 6.65312845,1.59006211 C6.65312845,2.46817391 5.92469881,3.18012422 5.02597677,3.18012422 C4.12686415,3.18012422 3.39843451,2.46817391 3.39843451,1.59006211 C3.39843451,0.711950311 4.12686415,-1.42108547e-14 5.02597677,-1.42108547e-14 Z" id="path-1"></path>
    </defs>
    <g id="Final" stroke="none" stroke-width="1" fill="none" fill-rule="evenodd">
        <g id="All-Nucleo-Icons" transform="translate(-175.000000, -7188.000000)">
            <g id="Solo/Nucleo/12px/passenger" transform="translate(168.000000, 7182.000000)">
                <g transform="translate(7.000000, 6.000000)" id="Colour/Default-Colour">
                    <g>
                        <mask id="mask-2" fill="white">
                            <use xlink:href="#path-1"></use>
                        </mask>
                        <use id="Mask" fill="#737373" xlink:href="#path-1"></use>
                        <g id="colour/neutral/chia" mask="url(#mask-2)" fill="#737373">
                            <g transform="translate(-27.000000, -26.000000)" id="Colour">
                                <rect x="0" y="0" width="64" height="64"></rect>
                            </g>
                        </g>
                    </g>
                </g>
            </g>
        </g>
    </g>
</svg>

<svg width="10" height="12" xmlns="http://www.w3.org/2000/svg" xmlns:xlink="http://www.w3.org/1999/xlink"><defs><path d="M7.27 11.007c.27 0 .488.223.488.497A.492.492 0 017.27 12H2.774a.492.492 0 01-.487-.496c0-.274.218-.497.487-.497zm1.997-9.079a.29.29 0 01.413.034.3.3 0 01-.033.42l-8.56 7.432h8.37c.162 0 .293.134.293.298a.296.296 0 01-.293.298H.293a.294.294 0 01-.275-.195.302.302 0 01.085-.33L2.228 8.04l-.131-2.42c0-.088.01-.174.028-.259.012-.054.032-.105.05-.157.009-.025.015-.05.026-.075.029-.068.065-.13.105-.193l.009-.013a1.21 1.21 0 01.262-.292 3.947 3.947 0 012.449-.815c.67 0 1.226.151 1.666.348zM7.682 4.851c.021.03.045.057.065.088l.022.035c.032.053.061.107.085.164.013.032.023.064.034.097.014.043.03.086.039.13.017.083.028.167.028.253v.002l-.202 3.596H2.694zM5.026 0c.899 0 1.627.712 1.627 1.59 0 .878-.728 1.59-1.627 1.59-.9 0-1.628-.712-1.628-1.59C3.398.712 4.127 0 5.026 0z" id="passenger-12px_svg__a"/></defs><use fill="#737373" xlink:href="#passenger-12px_svg__a" fill-rule="evenodd"/></svg>
